packages/icons/src/components/CategoryIcon/assets/profile-notifications.svg

<svg width="20" height="20" viewBox="0 0 20 20" fill="none" xmlns="http://www.w3.org/2000/svg">
<path d="M11.0908 11C12.1452 11 13 11.8548 13 12.9092V16L10 17L7 16V12.9092C7 11.8548 7.85482 11 8.90918 11H11.0908ZM10.1006 6.00488C10.3322 7.14035 10.9494 8.13539 11.8086 8.84863C11.4891 9.5283 10.8007 10 10 10C8.89543 10 8 9.10457 8 8C8 6.89543 8.89543 6 10 6C10.0338 6 10.0672 6.00323 10.1006 6.00488Z" fill="#A060F6" className="fillStrong"/>
<path d="M10 2C10.3216 2 10.6385 2.02073 10.9502 2.05762C10.5355 2.62917 10.2382 3.29242 10.0957 4.01367C10.0639 4.01317 10.032 4.01172 10 4.01172C6.69742 4.01172 4.01172 6.69742 4.01172 10C4.01172 13.3016 6.69742 15.9883 10 15.9883C13.3026 15.9883 15.9883 13.3016 15.9883 10C15.9883 9.96737 15.9859 9.93485 15.9854 9.90234C16.7052 9.75845 17.3682 9.45896 17.9404 9.04199C17.9779 9.35621 18 9.67569 18 10C18 14.4189 14.4189 18 10 18C5.58215 18 2 14.4189 2 10C2 5.58215 5.58215 2 10 2ZM15 1C17.2 1 19 2.78 19 5C19 7.20914 17.2091 9 15 9C12.7909 9 11 7.20914 11 5C11 2.78 12.78 1 15 1ZM15.3389 3.05078C15.0898 2.94762 14.803 3.00478 14.6123 3.19531L13.9453 3.8623C13.6851 4.12267 13.685 4.54439 13.9453 4.80469C14.0755 4.93484 14.2464 5 14.417 5V6.33301C14.417 6.7011 14.715 6.99983 15.083 7C15.4512 7 15.75 6.7012 15.75 6.33301V3.66699C15.75 3.39749 15.5878 3.15406 15.3389 3.05078Z" fill="#521094" className="fill"/>
</svg>

<svg xmlns="http://www.w3.org/2000/svg" width="20" height="20" fill="none" viewBox="0 0 20 20">
    <path fill="#a060f6" d="M11.09 11A1.91 1.91 0 0 1 13 12.91V16l-3 1-3-1v-3.09A1.91 1.91 0 0 1 8.91 11zm-.99-4.995a5 5 0 0 0 1.709 2.844A1.998 1.998 0 0 1 8 8a2 2 0 0 1 2-2q.05.001.1.005" className="fillStrong"/>
    <path fill="#521094" d="M10 2q.483 0 .95.058a5 5 0 0 0-.854 1.956L10 4.012A5.994 5.994 0 0 0 4.012 10 5.995 5.995 0 0 0 10 15.988 5.995 5.995 0 0 0 15.988 10q0-.049-.003-.098a5 5 0 0 0 1.955-.86q.058.472.06.958a8 8 0 1 1-8-8m5-1a4 4 0 1 1-4 4c0-2.22 1.78-4 4-4m.339 2.05a.67.67 0 0 0-.727.145l-.667.667A.666.666 0 0 0 14.417 5v1.333a.667.667 0 1 0 1.333 0V3.667a.67.67 0 0 0-.411-.616" className="fill"/>
</svg>
